static/img/icon-magic-wand-star.svg

<svg fill="none" height="24" viewBox="0 0 24 24" width="24" xmlns="http://www.w3.org/2000/svg"><g fill="#33373d"><path clip-rule="evenodd" d="m19.5207 12.8021c1.4399-.0607 2.2605-1.6717 1.463-2.87215l-1.1455-1.72408c-.0563-.08473-.0729-.18975-.0456-.28773l.5561-1.9938c.3873-1.3882-.8913-2.66646-2.2794-2.27891l-1.9937.55663c-.098.02735-.203.01073-.2877-.04554l-1.7244-1.14504c-1.2006-.79724-2.8114.02376-2.8718 1.46368l-.0866 2.0681c-.0043.10163-.0526.19638-.1323.25958l-1.62182 1.28613c-1.12923.89548-.84618 2.68113.50461 3.18353l1.32021.491-7.70613 7.7061c-.29289.2929-.29289.7678 0 1.0607s.76777.2929 1.06066 0l7.70437-7.7044.489 1.314c.5027 1.3507 2.2884 1.6333 3.1836.5038l1.2858-1.6221c.0632-.0798.1579-.128.2595-.1323zm-6.8355-2.029c-.114-.0745-.2368-.1367-.3666-.185l-1.9401-.72154c-.2556-.09504-.3091-.43287-.0955-.60228l1.6218-1.28613c.4213-.33407.6764-.83488.6989-1.37206l.0867-2.0681c.0115-.27242.3162-.42774.5433-.27691l1.7244 1.14503c.4479.29742 1.003.38528 1.5209.2407l1.9936-.55663c.2627-.07332.5046.16851.4313.43115l-.5561 1.9938c-.1445.51788-.0565 1.07299.241 1.52082l1.1455 1.72405c.1509.2271-.0044.5319-.2768.5434l-2.0681.0872c-.5372.0227-1.0379.2779-1.3719.6992l-1.2857 1.6222c-.1694.2137-.5072.1602-.6023-.0953l-.722-1.9399c-.0472-.1267-.1076-.2467-.1797-.3583-.0317-.1279-.0975-.249-.1975-.3489-.0989-.0989-.2187-.1645-.3451-.1965z" fill-rule="evenodd"/><path d="m5.5 3.24995c.41421 0 .75.33579.75.75v.75h.75c.41421 0 .75.33579.75.75 0 .41422-.33579.75-.75.75h-.75v.75c0 .41422-.33579.75-.75.75s-.75-.33578-.75-.75v-.75h-.75c-.41421 0-.75-.33578-.75-.75 0-.41421.33579-.75.75-.75h.75v-.75c0-.41421.33579-.75.75-.75z"/><path d="m19.25 17c0-.4143-.3358-.75-.75-.75s-.75.3357-.75.75v.75h-.75c-.4142 0-.75.3357-.75.75 0 .4142.3358.75.75.75h.75v.75c0 .4142.3358.75.75.75s.75-.3358.75-.75v-.75h.75c.4142 0 .75-.3358.75-.75 0-.4143-.3358-.75-.75-.75h-.75z"/></g></svg>

<svg width="24" height="24" viewBox="0 0 24 24" fill="none" xmlns="http://www.w3.org/2000/svg">
<path fill-rule="evenodd" clip-rule="evenodd" d="M19.5207 12.8021C20.9606 12.7414 21.7812 11.1304 20.9837 9.92995L19.8382 8.20587C19.7819 8.12114 19.7653 8.01612 19.7926 7.91814L20.3487 5.92434C20.736 4.53614 19.4574 3.25788 18.0693 3.64543L16.0756 4.20206C15.9776 4.22941 15.8726 4.21279 15.7879 4.15652L14.0635 3.01148C12.8629 2.21424 11.2521 3.03524 11.1917 4.47516L11.1051 6.54326C11.1008 6.64489 11.0525 6.73964 10.9728 6.80284L9.35098 8.08897C8.22175 8.98445 8.5048 10.7701 9.85559 11.2725L11.1758 11.7635L3.46967 19.4696C3.17678 19.7625 3.17678 20.2374 3.46967 20.5303C3.76256 20.8232 4.23744 20.8232 4.53033 20.5303L12.2347 12.8259L12.7237 14.1399C13.2264 15.4906 15.0121 15.7732 15.9073 14.6437L17.1931 13.0216C17.2563 12.9418 17.351 12.8936 17.4526 12.8893L19.5207 12.8021ZM12.6852 10.7731C12.5712 10.6986 12.4484 10.6364 12.3186 10.5881L10.3785 9.86656C10.1229 9.77152 10.0694 9.43369 10.283 9.26428L11.9048 7.97815C12.3261 7.64408 12.5812 7.14327 12.6037 6.60609L12.6904 4.53799C12.7019 4.26557 13.0066 4.11025 13.2337 4.26108L14.9581 5.40611C15.406 5.70353 15.9611 5.79139 16.479 5.64681L18.4726 5.09018C18.7353 5.01686 18.9772 5.25869 18.9039 5.52133L18.3478 7.51513C18.2033 8.03301 18.2913 8.58812 18.5888 9.03595L19.7343 10.76C19.8852 10.9871 19.7299 11.2919 19.4575 11.3034L17.3894 11.3906C16.8522 11.4133 16.3515 11.6685 16.0175 12.0898L14.7318 13.712C14.5624 13.9257 14.2246 13.8722 14.1295 13.6167L13.4075 11.6768C13.3603 11.5501 13.2999 11.4301 13.2278 11.3185C13.1961 11.1906 13.1303 11.0695 13.0303 10.9696C12.9314 10.8707 12.8116 10.8051 12.6852 10.7731Z" fill="#33373D"/>
<path d="M5.5 3.24995C5.91421 3.24995 6.25 3.58574 6.25 3.99995V4.74995H7C7.41421 4.74995 7.75 5.08574 7.75 5.49995C7.75 5.91417 7.41421 6.24995 7 6.24995H6.25V6.99995C6.25 7.41417 5.91421 7.74995 5.5 7.74995C5.08579 7.74995 4.75 7.41417 4.75 6.99995V6.24995H4C3.58579 6.24995 3.25 5.91417 3.25 5.49995C3.25 5.08574 3.58579 4.74995 4 4.74995H4.75V3.99995C4.75 3.58574 5.08579 3.24995 5.5 3.24995Z" fill="#33373D"/>
<path d="M19.25 17C19.25 16.5857 18.9142 16.25 18.5 16.25C18.0858 16.25 17.75 16.5857 17.75 17V17.75H17C16.5858 17.75 16.25 18.0857 16.25 18.5C16.25 18.9142 16.5858 19.25 17 19.25H17.75V20C17.75 20.4142 18.0858 20.75 18.5 20.75C18.9142 20.75 19.25 20.4142 19.25 20V19.25H20C20.4142 19.25 20.75 18.9142 20.75 18.5C20.75 18.0857 20.4142 17.75 20 17.75H19.25V17Z" fill="#33373D"/>
</svg>
